X: 1
T: the Queen's Delight
R: jig
Z: 1997 by John Chambers <jc:trillian.mit.edu>
M: 6/8
L: 1/8
K: G
|: "G"d2G dcB | "D7"cBc ABc | "G"d2G d2c | "D7"BcA "G"GBc \
|  "G"d2G dcB | "D7"cBc ABc | "G"d2G d2c | "D7"BcA "G"G3 :|
|: "C"cBc cBc | "D7"ABc def | "G"gfg "C"eag | "A7"gfe "D7"def \
|  "G"g2g gfe | "C"dec "D7"ABc | "G"d2G d2c | "D7"BcA "G"G3 :|
